X: 9071
T: Vlashko
O: Bulgaria
M: 2/4
L:1/8
Q:1/4=140
K:FMix
|"F" z4|z4\
|: FG AB|c2 B2|AF B2|~A2 F2|\
FG AB|c2 B2|AF B2|A4|
|FG AB|e2 ^c2|cB ^c2|c2 B2|\
F2 B2|A2 B2|A2 ^F2| F4:|
|:F2 B2|A2 B2|A2 ^F2| F^F c2|\
F2 B2|A2 B2|A2 ^F2| F4:|
|:F_G F2-|F2 B2|A2 ^F2|F^F c2|\
F_G F2-|F2 B2|A2 ^F2|F4:|
Q:1/4=180
|:FG AB|c2 B2|AF B2|A2 F2|\
FG AB|c2 B2|AF B2|A4|
|FG AB|e2 ^c2|cB ^c2|c2 B2|\
F2 B2|A2 B2|A2 ^F2| F4:|
|:F2 B2|A2 B2|A2 ^F2| F^F c2|\
F2 B2|A2 B2|A2 ^F2| F4:|
|:F_G F2-|F2 B2|A2 ^F2|F^F c2|\
F_G F2-|F2 B2|A2 ^F2|F4:|
